X:1
T:Bideford, 88.84
T:Bideford, 88.84
T:J. Dawson Hands, before 1913
T:Public Domain Courtesy of the Cyber Hymnal™
C:J. Dawson Hands, before 1913
Z:Public Domain
Z:Courtesy of the Cyber Hymnal™
%%score ( 1 2 ) ( 3 4 )
L:1/8
Q:1/4=110
M:4/4
K:E
V:1 treble 
V:2 treble 
V:3 bass 
V:4 bass 
V:1
 E2 | G2 c2 B2 [Ee]2 | [Ed]2 [Ec]2 [EB]2 [^EB]2 | [FA]2 [FA]2 [FA]2 [EG]2 | %4
 [EG]2 [EF]2 !fermata![DF]2 E2 | G2 c2 B2 [Ge]2 | [Fd]2 [Ec]2 [DB]2 [^EB]2 | A4 [DF]4 | E6 |] %9
V:2
 E2 | G2 c2 B2 x2 | x8 | x8 | x6 E2 | G2 c2 B2 x2 | x8 | (F2 C2) x4 | E6 |] %9
V:3
 E,2 | G,2 C2 B,2 [G,B,]2 | A,2 [A,,A,]2 [E,G,]2 [C,C]2 | [F,C]2 [E,=C]2 [D,B,]2 [E,B,]2 | %4
 [C,^A,]2 [F,A,]2 !fermata![B,,B,]2 E,2 | G,2 C2 B,2 [E,B,]2 | [F,B,]2 [F,^A,]2 [B,,B,]2 [C,G,]2 | %7
 [F,A,]4 (B,2 A,2) | [E,G,]6 |] %9
V:4
 E,2 | G,2 C2 B,2 x2 | A,2 x6 | x8 | x6 E,2 | G,2 C2 B,2 x2 | x8 | x4 B,,4 | x6 |] %9

